X:1
T:15.  O Mensch bewein dein' Sünde gross
T:Hugo Distler
T:Sebald Heyden (1494 - 1561)
T:15.  O Man, by Your Great Sin Distressed O Mensch, bewein dein' Sünde groß Passiontide
T:Bärenreiter Verlag
T:Bärenreiter Verlag
T:Bärenreiter Verlag
T:Bärenreiter Verlag
T:Bärenreiter Verlag
T:Bärenreiter Verlag
C:Hugo Distler
Z:Sebald Heyden
Z:(1494 - 1561)
Z:Bärenreiter Verlag
%%score [ 1 2 3 ]
L:1/8
Q:1/4=72
M:4/4
K:F
V:1 treble nm="Sop. 1"
V:2 treble nm="Sop. 2"
V:3 treble nm="Alto"
V:1
 z8 | z4 z2 F2 | F4 G2 (A2- | AG) F2 A2 B2 | !breath!c3 c B2 A2- | AG F2 A2 B2 | !breath!c2 d4 c2 | %7
w: |1. Oh|man, by your|_ _ great sin dis-|tressed for which Christ|_ left his Fa- ther's|breast and came|
w: |2. And|now let us|_ _ give thanks to|Him for all He|_ suff- fered for our|sin and seek|
 B2 A4 B2 | G4 F4 | z8 | z4 z2 F2 | F4 G2 (A2- | AG) F2 A2 B2 | !breath!c3 c B2 A2- | AG F2 A2 B2 | %15
w: to earth from|heav- en,||of|vir- gin maid,|_ _ so pure and|sweet, to be born|_ here He found it|
w: His will to|fol- low.||And|let us be|_ _ no friend to|sin be- cause God's|_ will our guide has|
 !breath!c2 d4 c2 | B2 A4 B2 | G4 F4 | z8 | z2 f2 f2 f2 | e4 c4 | d2 d2 !breath!c2 A2- | Ac d2 c4 | %23
w: meet, to be|our in- ter-|ces- sor.||and set a-|side dis-|ease and strife un-|* til the time|
w: been to aid|us in our|striv- ing||as Christ on|ev- ry|hand has shown, in|_ liv- ing and|
 A2 B4 A2 | z2 G2 A2 B2 | c3 B A2 A2 | G4 z4 | z2 c2 de f2- | f2 e2 d2 d2 | !breath!c4 F4 | %30
w: com- pelled Him|to of- fer|up His life for|us|and bear the weight|_ of sin for|us up-|
w: in dy- ing.|O child of|man, note well the|fact|that God in an-|* ger sin has|wracked, and|
 G2 A2 (B2 A2- | AG) F2 G4 | A4 z4 |] %33
w: on the cross, _|_ _ and die|there.|
w: guard your- self _|_ _ from dan-|ger.|
V:2
 C2 C4 D2 | E2 C2 (E2 F2- | FE) D2 E2 GG | (F3 E) D2 D2 | (E2 F2 G3 F | E2 D4) D2 | %6
w: 1. Oh man, by|your great sin _|_ _ dis- tressed for which|Christ _ left his|Fa- * * *|* * ther's|
w: 2. And now let|us give thanks _|_ _ to Him for all|He _ suff- fered|for _ _ _|_ _ our|
 !breath!E2 B4 A2- | AA A2 G2 (F2- | F2 E2) F4 | C2 C4 D2 | E2 C2 (E2 F2- | FE) D2 E2 GG | %12
w: breast and came|_ to earth from heav-|* * en,|of vir- gin|maid, so pure _|_ _ and sweet, to be|
w: sin and seek|_ His will to fol-|* * low.|And let us|be no friend _|_ _ to sin be- cause|
 (F3 E) D2 D2 | (E2 F2 G3 F | E2 D4) D2 | !breath!E2 B4 A2- | AA A2 G2 (F2- | F2 E2) F4 | %18
w: born _ here He|found _ _ _|_ _ it|meet, to be|_ our in- ter- ces-|* * sor.|
w: God's _ will our|guide _ _ _|_ _ has|been to aid|_ us in our striv-|* * ing|
 F2 F3 E D2 | C2 D4 D2 | !breath!A,2 A2 AAGE | AA !breath!A4 F2- | FG A2 G4 | F2 (D2 E2) ^F2 | %24
w: The dead He has|re- stored to|life and set a- side dis-|ease and strife un-|* til the time|com- pelled _ Him|
w: to show but love|to ev- 'ry-|one, as Christ on ev- ry|hand has shown, in|_ liv- ing and|in dy- * ing.|
 z2 E3 =F G2 | F2 E2 (DC) B,2 | !breath!C2 C2 DE F2 | F2 EE A2 A2- | AA G2 (B4 | A2) G2 (F4- | %30
w: to of- fer|up His life _ for|us and bear the weight|of sin for us up-|* on the cross,|_ and die|
w: O child of|man, note well _ the|fact that God in an-|ger sin has wracked, and|_ guard your- self|_ from dan-|
 F2 ED E2 F2- | FGAB c4) | c4 z4 |] %33
w: _ _ _ _ _||there.|
w: ||ger.|
V:3
 z8 | G,2 G,4 A,2 | (B,3 A,) C2 B,2 | A,2 D3 D C2 | B,2 B,A, (G,A,) B,2 | !breath!C2 (F3 E D2) | %6
w: |1. Oh man, by|your _ great sin|dis- tressed for which|Christ left his Fa- * ther's|breast and _ _|
w: |2. And now let|us _ give thanks|to Him for all|He suff- fered for _ our|sin and _ _|
 !breath!C2 (G3 F E2) | DE F4 D2 | C4 F4 | z8 | G,2 G,4 A,2 | (B,3 A,) C2 B,2 | A,2 D3 D C2 | %13
w: came, and _ _|came to earth from|heav- en,||of vir- gin|maid, _ so pure|and sweet, to be|
w: seek, and _ _|seek His will to|fol- low.||And let us|be _ no friend|to sin be- cause|
 B,2 B,A, (G,A,) B,2 | !breath!C2 (F3 E D2) | !breath!C2 (G3 F E2) | DE F4 D2 | C4 F4 | %18
w: born here He found _ it|meet, to _ _|be, to _ _|be our in- ter-|ces- sor.|
w: God's will our guide _ has|been to _ _|aid, to _ _|aid us in our|striv- ing|
 A,2 D2 C2 B,2- | B,A, B,4 B,2 | C2 z2 z4 | z4 z2 D2- | DC B,2 C4 | D2 G,4 D2 | z8 | z2 C2 D2 E2 | %26
w: The dead He has|_ re- stored to|life|un-|* til the time|com- pelled Him||to of- fer|
w: to show but love|_ to ev- 'ry-|one,|in|_ liv- ing and|in dy- ing.||O child of|
 F2 E2 D2 D2 | C4 z4 | z2 C2 D2 E2 | F2 E2 D2 D2 | !breath!C2 A,2 A,G, (D2- | DE) F2 (F2 E2) | %32
w: up His life for|us|and bear the|weight of sin for|us up- on the cross,|_ _ and die _|
w: man, note well the|fact|that God in|an- ger sin has|wracked, and guard your- self|_ _ from dan- *|
 F4 z4 |] %33
w: there.|
w: ger.|

